img/2tag.svg

<svg width="34" height="33" viewBox="0 0 34 33" fill="none" xmlns="http://www.w3.org/2000/svg">
<path d="M24.6002 3.07222C24.3374 1.81896 23.1962 0.872559 21.8313 0.872559C21.5193 0.872559 21.2661 1.11837 21.2661 1.42247C21.2661 1.72658 21.5193 1.97239 21.8313 1.97239C22.7661 1.97239 23.5269 2.71258 23.5269 3.62214C23.5269 4.5317 22.7661 5.27189 21.8313 5.27189C21.5193 5.27189 21.2661 5.5177 21.2661 5.8218C21.2661 6.12591 21.5193 6.37172 21.8313 6.37172C23.1957 6.37172 24.3374 5.42531 24.6002 4.17205H32.0048V9.1213H1.48442V4.17205H9.3971H11.0927C11.4047 4.17205 11.6579 3.92624 11.6579 3.62214C11.6579 3.31804 11.4047 3.07222 11.0927 3.07222H10.0663C10.3003 2.43322 10.922 1.97239 11.6579 1.97239C12.5927 1.97239 13.3534 2.71258 13.3534 3.62214C13.3534 4.5317 12.5927 5.27189 11.6579 5.27189C11.3459 5.27189 11.0927 5.5177 11.0927 5.8218C11.0927 6.12591 11.3459 6.37172 11.6579 6.37172C13.2161 6.37172 14.4838 5.13826 14.4838 3.62214C14.4838 2.10602 13.2161 0.872559 11.6579 0.872559C10.2935 0.872559 9.1518 1.81896 8.88899 3.07222H0.354034V10.2211V32.2178H33.1351V10.2211V3.07222H24.6002ZM32.0048 31.1179H1.48442V10.2211H32.0048V31.1179Z" fill="white"/>
<path d="M15.049 1.97239C15.9839 1.97239 16.7446 2.71258 16.7446 3.62214C16.7446 4.5317 15.9839 5.27189 15.049 5.27189C14.7371 5.27189 14.4839 5.5177 14.4839 5.8218C14.4839 6.12591 14.7371 6.37172 15.049 6.37172C16.6073 6.37172 17.875 5.13826 17.875 3.62214C17.875 2.10602 16.6073 0.872559 15.049 0.872559C14.7371 0.872559 14.4839 1.11837 14.4839 1.42247C14.4839 1.72658 14.7371 1.97239 15.049 1.97239Z" fill="white"/>
<path d="M18.4402 1.97239C19.375 1.97239 20.1358 2.71258 20.1358 3.62214C20.1358 4.5317 19.375 5.27189 18.4402 5.27189C18.1282 5.27189 17.875 5.5177 17.875 5.8218C17.875 6.12591 18.1282 6.37172 18.4402 6.37172C19.9984 6.37172 21.2662 5.13826 21.2662 3.62214C21.2662 2.10602 19.9984 0.872559 18.4402 0.872559C18.1282 0.872559 17.875 1.11837 17.875 1.42247C17.875 1.72658 18.1282 1.97239 18.4402 1.97239Z" fill="white"/>
<path d="M5.4408 14.6201H17.875C18.187 14.6201 18.4402 14.3743 18.4402 14.0702C18.4402 13.7661 18.187 13.5203 17.875 13.5203H5.4408C5.12882 13.5203 4.87561 13.7661 4.87561 14.0702C4.87561 14.3743 5.12882 14.6201 5.4408 14.6201Z" fill="white"/>
<path d="M28.0485 22.3191H19.5706C19.2586 22.3191 19.0054 22.5649 19.0054 22.869C19.0054 23.1731 19.2586 23.4189 19.5706 23.4189H28.0485C28.3605 23.4189 28.6137 23.1731 28.6137 22.869C28.6137 22.5649 28.3605 22.3191 28.0485 22.3191Z" fill="white"/>
<path d="M5.4408 19.0198H11.0927C11.4047 19.0198 11.6579 18.7739 11.6579 18.4698C11.6579 18.1657 11.4047 17.9199 11.0927 17.9199H5.4408C5.12882 17.9199 4.87561 18.1657 4.87561 18.4698C4.87561 18.7739 5.12882 19.0198 5.4408 19.0198Z" fill="white"/>
<path d="M28.0485 26.7185H22.3966C22.0846 26.7185 21.8314 26.9643 21.8314 27.2684C21.8314 27.5725 22.0846 27.8183 22.3966 27.8183H28.0485C28.3605 27.8183 28.6137 27.5725 28.6137 27.2684C28.6137 26.9643 28.3605 26.7185 28.0485 26.7185Z" fill="white"/>
<path d="M16.1794 18.4698C16.1794 18.7739 16.4326 19.0198 16.7446 19.0198H25.2225C25.5345 19.0198 25.7877 18.7739 25.7877 18.4698C25.7877 18.1657 25.5345 17.9199 25.2225 17.9199H16.7446C16.4326 17.9199 16.1794 18.1657 16.1794 18.4698Z" fill="white"/>
<path d="M14.32 18.8605C14.4217 18.756 14.4839 18.613 14.4839 18.47C14.4839 18.3265 14.4217 18.1835 14.32 18.0796C14.1109 17.8761 13.7265 17.8761 13.5174 18.0796C13.4157 18.1835 13.3535 18.3265 13.3535 18.47C13.3535 18.613 13.4157 18.756 13.5174 18.8605C13.6248 18.9644 13.7718 19.02 13.9187 19.02C14.0657 19.02 14.2126 18.9644 14.32 18.8605Z" fill="white"/>
<path d="M7.70154 22.869C7.70154 23.1731 7.95474 23.4189 8.26673 23.4189H16.7446C17.0566 23.4189 17.3098 23.1731 17.3098 22.869C17.3098 22.5649 17.0566 22.3191 16.7446 22.3191H8.26673C7.95474 22.3191 7.70154 22.5649 7.70154 22.869Z" fill="white"/>
<path d="M5.4408 23.4194C5.58775 23.4194 5.7347 23.3589 5.84209 23.26C5.94382 23.1555 6.00599 23.0125 6.00599 22.8695C6.00599 22.726 5.94382 22.583 5.84209 22.4846C5.63297 22.2756 5.24864 22.2756 5.03952 22.4791C4.93778 22.583 4.87561 22.726 4.87561 22.8695C4.87561 23.0125 4.93778 23.1555 5.03952 23.26C5.1469 23.3589 5.2882 23.4194 5.4408 23.4194Z" fill="white"/>
<path d="M28.0485 19.02C28.1954 19.02 28.3424 18.9644 28.4498 18.8605C28.5571 18.756 28.6137 18.613 28.6137 18.47C28.6137 18.3265 28.5571 18.1835 28.4498 18.0796C28.235 17.8761 27.8563 17.8761 27.6472 18.0796C27.5454 18.1835 27.4833 18.3265 27.4833 18.47C27.4833 18.613 27.5454 18.756 27.6472 18.8605C27.7546 18.9644 27.9015 19.02 28.0485 19.02Z" fill="white"/>
<path d="M19.5706 26.7185H5.4408C5.12882 26.7185 4.87561 26.9643 4.87561 27.2684C4.87561 27.5725 5.12882 27.8183 5.4408 27.8183H19.5706C19.8826 27.8183 20.1358 27.5725 20.1358 27.2684C20.1358 26.9643 19.8826 26.7185 19.5706 26.7185Z" fill="white"/>
</svg>

<svg width="34" height="33" fill="none" xmlns="http://www.w3.org/2000/svg"><path d="M24.6 3.072c-.263-1.253-1.404-2.2-2.769-2.2a.558.558 0 0 0-.565.55c0 .305.253.55.565.55.935 0 1.696.74 1.696 1.65 0 .91-.76 1.65-1.696 1.65a.558.558 0 0 0-.565.55c0 .304.253.55.565.55 1.365 0 2.506-.947 2.77-2.2h7.404v4.95H1.485v-4.95h9.608a.558.558 0 0 0 .565-.55.558.558 0 0 0-.565-.55h-1.027a1.69 1.69 0 0 1 1.592-1.1c.935 0 1.695.74 1.695 1.65 0 .91-.76 1.65-1.695 1.65a.558.558 0 0 0-.565.55c0 .304.253.55.565.55 1.558 0 2.826-1.234 2.826-2.75S13.216.872 11.658.872c-1.364 0-2.506.947-2.769 2.2H.354v29.146h32.781V3.072H24.6Zm7.405 28.046H1.485V10.22h30.52v20.897Z" fill="#fff"/><path d="M15.049 1.972c.935 0 1.696.74 1.696 1.65 0 .91-.761 1.65-1.696 1.65a.558.558 0 0 0-.565.55c0 .304.253.55.565.55 1.558 0 2.826-1.234 2.826-2.75S16.607.872 15.049.872a.558.558 0 0 0-.565.55c0 .305.253.55.565.55ZM18.44 1.972c.935 0 1.696.74 1.696 1.65 0 .91-.761 1.65-1.696 1.65a.558.558 0 0 0-.565.55c0 .304.253.55.565.55 1.558 0 2.826-1.234 2.826-2.75S19.998.872 18.44.872a.558.558 0 0 0-.565.55c0 .305.253.55.565.55ZM5.44 14.62h12.435a.558.558 0 0 0 .565-.55.558.558 0 0 0-.565-.55H5.441a.558.558 0 0 0-.565.55c0 .304.253.55.565.55ZM28.049 22.32H19.57a.558.558 0 0 0-.566.549c0 .304.254.55.566.55h8.477a.558.558 0 0 0 .566-.55.558.558 0 0 0-.566-.55ZM5.44 19.02h5.653a.558.558 0 0 0 .565-.55.558.558 0 0 0-.565-.55H5.44a.558.558 0 0 0-.565.55c0 .304.253.55.565.55ZM28.049 26.718h-5.652a.558.558 0 0 0-.566.55c0 .305.254.55.566.55h5.652a.558.558 0 0 0 .565-.55.558.558 0 0 0-.566-.55ZM16.18 18.47c0 .304.253.55.565.55h8.477a.558.558 0 0 0 .566-.55.558.558 0 0 0-.566-.55h-8.477a.558.558 0 0 0-.566.55ZM14.32 18.86a.57.57 0 0 0 .164-.39.568.568 0 0 0-.164-.39.604.604 0 0 0-.803 0 .568.568 0 0 0-.163.39.57.57 0 0 0 .163.39.58.58 0 0 0 .803 0ZM7.702 22.869c0 .304.253.55.565.55h8.478a.558.558 0 0 0 .565-.55.558.558 0 0 0-.565-.55H8.267a.558.558 0 0 0-.565.55ZM5.44 23.42c.148 0 .295-.061.402-.16a.57.57 0 0 0 .164-.39.545.545 0 0 0-.164-.385.598.598 0 0 0-.802-.006.568.568 0 0 0-.164.39.57.57 0 0 0 .164.391c.107.099.248.16.4.16ZM28.049 19.02a.58.58 0 0 0 .4-.16.546.546 0 0 0 0-.78.604.604 0 0 0-.802 0 .568.568 0 0 0-.164.39.57.57 0 0 0 .164.39.58.58 0 0 0 .402.16ZM19.57 26.718H5.44a.558.558 0 0 0-.564.55c0 .305.253.55.565.55h14.13a.558.558 0 0 0 .565-.55.558.558 0 0 0-.565-.55Z" fill="#fff"/></svg>
